img/SAUNA/icon/comfort.svg

<svg width="30" height="30" viewBox="0 0 30 30" fill="none" xmlns="http://www.w3.org/2000/svg">
<path d="M15.0536 14.4804C11.6197 14.4804 8.18037 14.4804 4.74644 14.4804C4.27501 14.4804 4.21073 14.4107 4.31787 13.9447C5.2768 9.65896 7.84823 6.83574 12.0375 5.51253C12.7447 5.28753 13.5054 5.22324 14.2393 5.11074C14.4375 5.0786 14.4911 5.01431 14.4911 4.82681C14.4911 4.61253 14.3679 4.60717 14.2125 4.60717C13.8268 4.60717 13.8268 4.60181 13.8268 4.21074C13.8268 4.13039 13.8322 4.05003 13.8268 3.96967C13.8161 3.81967 13.8804 3.76074 14.0304 3.76074C14.7161 3.7661 15.4072 3.76074 16.0929 3.7661C16.1572 3.7661 16.275 3.82503 16.275 3.86789C16.2964 4.08217 16.3072 4.29646 16.2697 4.50539C16.2589 4.55896 16.0714 4.60181 15.9643 4.61253C15.7929 4.6286 15.6161 4.58574 15.6214 4.85896C15.6268 5.05181 15.7072 5.09467 15.8786 5.10539C16.9339 5.18574 17.9679 5.39467 18.9482 5.7911C22.6929 7.32324 24.975 10.0715 25.8107 14.0304C25.8911 14.4054 25.8161 14.4857 25.4143 14.4857C21.9589 14.4804 18.5036 14.4804 15.0536 14.4804Z" fill="#2F2F2F"/>
<path d="M15.0536 16.2268C19.0232 16.2268 22.9982 16.2268 26.9679 16.2268C27.375 16.2268 27.3857 16.2429 27.3911 16.65C27.3911 17.2125 27.3911 17.775 27.3911 18.3375C27.3911 18.75 27.375 18.7607 26.9732 18.7607C24.4286 18.7607 21.8839 18.7607 19.3447 18.7607C13.9982 18.7607 8.65179 18.7607 3.30536 18.7607C2.72144 18.7607 2.72144 18.7607 2.72144 18.1768C2.72144 17.6572 2.72144 17.1429 2.72144 16.6232C2.72144 16.2482 2.74286 16.2214 3.11251 16.2214C6.21965 16.2214 9.32144 16.2214 12.4286 16.2214C13.3018 16.2268 14.1804 16.2268 15.0536 16.2268Z" fill="#2F2F2F"/>
<path d="M24.643 26.1643C24.6483 26.4911 24.4394 26.6411 24.1823 26.5125C23.7751 26.3143 23.368 26.1054 22.9769 25.8804C22.7305 25.7357 22.5215 25.7464 22.2805 25.8911C21.9108 26.1054 21.5305 26.3036 21.1448 26.4857C21.0323 26.5339 20.8448 26.5447 20.759 26.4804C20.6733 26.4161 20.6305 26.2286 20.6465 26.1054C20.7055 25.6554 20.7965 25.2107 20.8823 24.7607C20.9198 24.5572 20.8823 24.4018 20.7215 24.2571C20.3894 23.9464 20.0573 23.6357 19.7465 23.3036C19.6608 23.2125 19.5751 23.0357 19.6073 22.9446C19.6448 22.8375 19.8108 22.7304 19.9394 22.7089C20.384 22.6232 20.834 22.5589 21.2894 22.5054C21.4983 22.4786 21.6269 22.3875 21.718 22.2C21.9108 21.7875 22.109 21.375 22.3287 20.9839C22.393 20.8714 22.543 20.7536 22.6608 20.7482C22.7626 20.7428 22.9073 20.8768 22.9662 20.9893C23.1858 21.3857 23.3787 21.7982 23.5715 22.2107C23.6626 22.4036 23.7965 22.4839 24.0055 22.5107C24.4662 22.5696 24.9269 22.6339 25.3823 22.7196C25.5001 22.7411 25.6501 22.8482 25.6876 22.9554C25.7198 23.0464 25.6448 23.2179 25.5644 23.2982C25.2376 23.6411 24.8948 23.9625 24.5465 24.2893C24.4019 24.4286 24.359 24.5732 24.3965 24.7714C24.4876 25.2429 24.568 25.7304 24.643 26.1643Z" fill="#2F2F2F"/>
<path d="M5.45896 26.1589C5.53396 25.7197 5.6036 25.2429 5.70539 24.7714C5.7536 24.5518 5.69468 24.3964 5.53396 24.2464C5.20718 23.9411 4.88039 23.6357 4.57503 23.3143C4.48932 23.2232 4.39289 23.0465 4.42503 22.9554C4.46253 22.8482 4.6286 22.7357 4.75182 22.709C5.19646 22.6179 5.64646 22.559 6.10182 22.5054C6.32146 22.4786 6.45539 22.3768 6.54646 22.1786C6.73396 21.7768 6.92682 21.3697 7.1411 20.984C7.20539 20.8715 7.35539 20.7482 7.47325 20.7429C7.57503 20.7375 7.71967 20.8715 7.7786 20.9786C7.99289 21.3697 8.1911 21.7715 8.37325 22.1732C8.46968 22.3822 8.60896 22.484 8.83932 22.5054C9.28396 22.5536 9.72325 22.6179 10.1625 22.7036C10.2911 22.7304 10.4679 22.8322 10.4947 22.9393C10.5268 23.0465 10.4357 23.2232 10.3447 23.3197C10.0393 23.6465 9.71789 23.9518 9.38575 24.2518C9.21968 24.4018 9.17682 24.5679 9.21968 24.7768C9.30003 25.2054 9.38575 25.6339 9.44468 26.0679C9.46075 26.2018 9.4286 26.4 9.34289 26.4697C9.25717 26.5339 9.0536 26.5179 8.93575 26.4643C8.53932 26.2822 8.1536 26.0732 7.77325 25.8589C7.55896 25.7357 7.37146 25.725 7.15182 25.8536C6.75539 26.0786 6.3536 26.2875 5.94646 26.4857C5.67325 26.6304 5.4536 26.4857 5.45896 26.1589Z" fill="#2F2F2F"/>
<path d="M12.809 26.2072C12.884 25.7732 12.9536 25.3125 13.0501 24.8625C13.109 24.5893 13.0608 24.3857 12.8411 24.1982C12.5304 23.9304 12.2358 23.6411 11.9572 23.3411C11.8608 23.2393 11.7751 23.0572 11.8018 22.9339C11.8233 22.8375 12.0108 22.7357 12.1393 22.7089C12.5679 22.6232 13.0018 22.5589 13.4358 22.5161C13.6822 22.4893 13.8215 22.3768 13.9179 22.1625C14.1001 21.7661 14.2876 21.3696 14.5018 20.9893C14.5661 20.8768 14.7161 20.7589 14.834 20.7536C14.9358 20.7482 15.0804 20.8821 15.1393 20.9893C15.359 21.3857 15.5518 21.7982 15.7447 22.2107C15.8358 22.3982 15.9697 22.4893 16.1786 22.5161C16.6393 22.5697 17.1 22.6393 17.5554 22.725C17.6679 22.7464 17.8125 22.8482 17.8447 22.9447C17.8768 23.0411 17.8125 23.2072 17.7322 23.2929C17.4054 23.6357 17.0625 23.9625 16.7197 24.2839C16.575 24.4232 16.5322 24.5679 16.5697 24.7661C16.6554 25.2054 16.7411 25.6393 16.8 26.084C16.8161 26.2179 16.7786 26.4161 16.6929 26.4804C16.6072 26.5447 16.4036 26.5286 16.2858 26.4697C15.884 26.2822 15.4929 26.0679 15.1018 25.8536C14.909 25.7465 14.7429 25.7518 14.55 25.859C14.1483 26.084 13.7304 26.2982 13.3179 26.5018C13.0501 26.6197 12.8197 26.4911 12.809 26.2072Z" fill="#2F2F2F"/>
</svg>

<svg width="30" height="30" viewBox="0 0 30 30" fill="none" xmlns="http://www.w3.org/2000/svg"><path d="M15.054 14.48H4.746c-.471 0-.535-.07-.428-.535.959-4.286 3.53-7.11 7.72-8.432.707-.225 1.467-.29 2.201-.402.198-.032.252-.097.252-.284 0-.214-.123-.22-.278-.22-.386 0-.386-.005-.386-.396 0-.08.005-.161 0-.241-.01-.15.053-.21.203-.21.686.006 1.377 0 2.063.006.064 0 .182.059.182.102a2.31 2.31 0 01-.005.637c-.011.054-.199.097-.306.108-.171.016-.348-.027-.343.246.006.193.086.236.258.246 1.055.08 2.089.29 3.07.686 3.744 1.532 6.026 4.28 6.862 8.24.08.374.005.455-.397.455-3.455-.006-6.91-.006-10.36-.006zm0 1.747h11.914c.407 0 .418.016.423.423v1.688c0 .412-.016.423-.418.423H3.305c-.584 0-.584 0-.584-.584v-1.554c0-.375.022-.402.392-.402h9.316c.873.006 1.751.006 2.625.006zm9.589 9.937c.005.327-.204.477-.46.348a19.79 19.79 0 01-1.206-.632c-.247-.144-.456-.134-.697.011-.37.214-.75.413-1.135.595-.113.048-.3.059-.386-.006-.086-.064-.128-.251-.113-.375.06-.45.15-.894.236-1.344.038-.204 0-.36-.16-.504-.333-.31-.665-.621-.976-.953-.085-.091-.17-.268-.139-.36.038-.107.204-.214.332-.235.445-.086.895-.15 1.35-.204a.5.5 0 00.429-.305c.193-.412.391-.825.61-1.216.065-.113.215-.23.333-.236.102-.005.246.129.305.241.22.397.413.81.605 1.222.092.193.226.273.434.3.461.059.922.123 1.377.209.118.021.268.128.306.235.032.091-.043.263-.124.343-.326.343-.67.665-1.017.991a.48.48 0 00-.15.482c.09.472.171.96.246 1.393zm-19.184-.005c.075-.44.145-.916.246-1.388.049-.22-.01-.375-.171-.525-.327-.305-.654-.61-.959-.932-.086-.09-.182-.267-.15-.359.038-.107.204-.22.327-.246.444-.091.894-.15 1.35-.204a.514.514 0 00.444-.326c.188-.402.38-.81.595-1.195.064-.113.214-.236.332-.241.102-.005.247.129.306.236.214.39.412.793.594 1.194.097.21.236.311.466.332.445.049.884.113 1.323.199.13.026.306.128.333.235.032.108-.06.284-.15.38-.306.328-.627.633-.96.933a.506.506 0 00-.165.525c.08.428.166.857.225 1.29.016.135-.016.333-.102.403-.086.064-.29.048-.407-.006a15.92 15.92 0 01-1.163-.605c-.214-.123-.402-.134-.621-.005-.397.225-.798.434-1.206.632-.273.144-.492 0-.487-.327zm7.35.048c.075-.434.145-.895.241-1.345.059-.273.01-.476-.209-.664a11.35 11.35 0 01-.884-.857c-.096-.102-.182-.284-.155-.407.021-.097.209-.198.337-.225.429-.086.863-.15 1.297-.193a.543.543 0 00.482-.353c.182-.397.37-.793.584-1.174.064-.112.214-.23.332-.235.102-.006.246.128.305.235.22.397.413.81.606 1.222a.508.508 0 00.434.305c.46.054.921.123 1.376.209.113.021.258.123.29.22.032.096-.032.262-.113.348-.327.343-.67.67-1.012.99a.48.48 0 00-.15.483c.085.44.171.873.23 1.318.016.134-.021.332-.107.396-.086.065-.29.049-.407-.01a20.686 20.686 0 01-1.184-.616.515.515 0 00-.552.005c-.402.225-.82.44-1.232.643-.268.118-.498-.01-.509-.295z" fill="#2F2F2F"/></svg>
